X: 30661
T: SCOTCH REEL. No. 3.
C:
%R: hornpipe, reel
B: Elias Howe "The Musician's Companion" Part 3 1844 p.66 #1
S: http://imslp.org/wiki/The_Musician's_Companion_(Howe,_Elias)
S: The above file has page 66 illegible; a readable copy was found at:
S: https://archive.org/stream/firstthirdpartof03howe/#page/66/mode/1up
Z: 2015 John Chambers <jc:trillian.mit.edu>
M: 2/4
L: 1/16
K: Bb
% - - - - - - - - - - - - - - - - - - - - - - - - -
F2 |\
B>AB>A B>cd>e | f>ef>e f>ga>f | b>fd>f e>dc>B | d>cB>c B>AG>F |\
B>AB>A B>cd>e | f>ef>e f>ga>f | b>fd>f f>ec>d | B2B2B2 :|
|: A>B |\
c>BA>G F>Ac>e | d>BA>B F>Bd>f | e>df>e d>fB>d | c>f=e>f _e>cA>c |\
B>cB>d f>db>f | e>fe>c A>cF>e | d>fb>f f>ec>A | B2B2B2 :|
% - - - - - - - - - - - - - - - - - - - - - - - - -
